src/icons/twitter.svg

<svg width="28" height="28" viewBox="0 0 28 28" fill="none" xmlns="http://www.w3.org/2000/svg">
<rect width="28" height="28" rx="4" fill="white"/>
<path d="M11.0327 19.9998C12.2612 20.0075 13.479 19.7713 14.6154 19.3048C15.7519 18.8383 16.7844 18.1508 17.653 17.2823C18.5217 16.4137 19.2093 15.3813 19.6758 14.245C20.1424 13.1087 20.3786 11.891 20.3709 10.6627V10.2337C21.0077 9.76718 21.5589 9.19393 22 8.53934C21.4004 8.80156 20.7659 8.97547 20.1164 9.05564C20.805 8.64535 21.3217 7.99952 21.5709 7.23767C20.9291 7.62267 20.2253 7.89333 19.4909 8.03758C18.9963 7.51063 18.3418 7.16136 17.6287 7.04379C16.9156 6.92623 16.1836 7.04693 15.546 7.38722C14.9084 7.72751 14.4007 8.26842 14.1015 8.92626C13.8023 9.58409 13.7283 10.3222 13.8909 11.0263C12.5862 10.9623 11.3096 10.6242 10.1443 10.0341C8.97891 9.44395 7.95094 8.61502 7.12727 7.60126C6.71194 8.32203 6.58606 9.17368 6.7751 9.98377C6.96414 10.7939 7.45399 11.5018 8.14545 11.9644C7.63535 11.9447 7.13706 11.8052 6.69091 11.5572V11.5935C6.68638 12.3468 6.94016 13.0788 7.40997 13.6677C7.87977 14.2565 8.53722 14.6666 9.27273 14.8295C8.79828 14.9571 8.3013 14.977 7.81818 14.8877C8.03112 15.5301 8.43759 16.0909 8.98185 16.4932C9.52612 16.8955 10.1815 17.1195 10.8582 17.1347C9.70124 18.0659 8.26334 18.5784 6.77818 18.5891C6.51778 18.5815 6.258 18.5597 6 18.5236C7.50324 19.4813 9.25033 19.9861 11.0327 19.978" fill="#774C88"/>
</svg>

<svg xmlns="http://www.w3.org/2000/svg" width="28" height="28" fill="none"><rect width="28" height="28" rx="4" fill="#fff"/><path d="M11.033 20a9.28 9.28 0 0 0 6.62-2.718 9.28 9.28 0 0 0 2.718-6.62v-.429c.637-.467 1.188-1.04 1.629-1.694a6.77 6.77 0 0 1-1.884.516c.689-.41 1.205-1.056 1.455-1.818-.642.385-1.346.656-2.08.8-.495-.527-1.149-.876-1.862-.994a3.29 3.29 0 0 0-2.083.343c-.638.34-1.145.881-1.444 1.539s-.373 1.396-.211 2.1a9.3 9.3 0 0 1-6.764-3.425 3.28 3.28 0 0 0 1.018 4.363 3.25 3.25 0 0 1-1.455-.407v.036c-.005.753.249 1.485.719 2.074s1.127.999 1.863 1.162c-.474.128-.971.148-1.455.058a3.28 3.28 0 0 0 3.04 2.247c-1.157.931-2.595 1.444-4.08 1.454-.26-.008-.52-.029-.778-.066a9.29 9.29 0 0 0 5.033 1.454" fill="#774c88"/></svg>
